X: 28
T: Drunken-man Dance Song (f)
C: Anon.
%%abc-version 2.0
%%abcx-abcm2ps-target-version 5.9.1 (29 Sep 2008)
%%abc-creator hum2abc beta
%%abcx-conversion-date 2020/08/10 20:56:09
%%abc-copyright Electronic Copyright 2000 David Huron
%%abc-edited-by David Huron
%%abcx-initial-encoding-date August 28, 2000
%%humdrum-veritas 757530038
%%humdrum-veritas-data 3113713441
%%linebreak <none>
%%barnumbers 0
L: 1/8
M: 2/4
Q: 1/4=96
K: A clef=bass
F, F,- F, F, [I:setbarnb 2]| 
F, F,F,2 | 
A, F,E,2 | 
A, A,- A, A, | 
A, zA,2 | 
A, A, E, z | 
F, F,- F, F, | 
F, zF,2 | 
F, E, E, z | 
F, F,- F, F, | 
F, F,F,2 | 
A, A,E,2 | 
A, A,- A, A, | 
A, zA,2 | 
A,> G, E, z | 
F, F,- F, F, | 
F, zF,2 | 
F,> E, E, z :|]  
F, F,- F, F, [I:setbarnb 20]| 
F, zz2 |]  


